X: 25
T: No_127.krn
N: Derived from No_127.krn
%%abc-version 2.0
%%abcx-abcm2ps-target-version 5.9.1 (29 Sep 2008)
%%abc-creator hum2abc beta
%%abcx-conversion-date 2019/03/15 08:29:13
%%humdrum-veritas 1976079499
%%humdrum-veritas-data 2967862745
%%linebreak <none>
%%barnumbers 0
L: 1/8
M: 3/4
%%staves {1 2}
V: 1 clef=bass
V: 2 clef=bass
K: Gb
[V:1] [K:clef=bass][M:3/4]G3/F/E4 | 
[V:2] [K:clef=bass][M:3/4]z6 | 
[V:1] G3/F/E4 | 
[V:2] (3G,, z G,, (3G,, z G,, (3G,, z G,, | 
[V:1] GG EE/C/ CA, | 
[V:2] z6 | 
[V:1] B,/A,/G, E,E,- E,G,/G,/ | 
[V:2] z6 | 
[V:1] A,2A,A, (3B,/A,/G,/- G, | 
[V:2] z6 | 
[V:1] E,3/E,/E,4 |]  
[V:2] z6 |]  



% FRACTION = 0.499634BUT SHOULD BE 0
